X:9
T:Mrs. O'Sullivan's Jig
R:jig
D:Patrick Street 1.
Z:Also played in A minor.
Z:id:hn-jig-9
M:6/8
K:Bm
FAA AFE|FAA d2c|BdB BAB|def f2e|def a2b|afe d2e|fbb fge|1 dBB B2A:|2 dBB B2e||
|:faa afe|faa a2e|fbb bab|c'ba b2c|def a2b|afe d2e|fbb fge|1 dBB B2e:|2 dBB B2A||
<end>
<start>
